X: 4143
T: PUNKIE WILLIE
R: Strathspey.
%R: strathspey
B: James Kerr "Merry Melodies" v.4 p.17 #143
Z: 2016 John Chambers <jc:trillian.mit.edu>
M: C
L: 1/16
K: Am
a2 |\
ec3 c3B A4 A3B | c3Bc3d ea3 a3g |\
ec3 c3B A4 A3B | cdef e3d cA3 A2 :|
|: B2 |\
cc3 e3f g4 g3a | g3ec3e d3BG3B |\
cc3 e3f g3ea3f | eagf edcB cA3 A2 :|

%%sep 1 1 500
%%sep 1 1 500

